X:7
T:Drunken Wives in Pearson's Closs
M:C|
L:1/8
K:AMix
Ee e/e/e edeg    |dedB GABG     |Ee e/e/e edeg|dBgB A/A/A A2:|
eaca     e/e/e g2|dgBg d/d/d Tf2|eaca     efge|dBgB A/A/A A2:|

% @@@@@@@@@@@@@@@@@@@@@@@@@@@@@@@@@@

%%  8. ===============================================================================

%   ~  ^The   ~
% Ragged Sailor.^
% -------------
%
% *SETT the first Man to 2d Woman and turn her, the first Woman the same to 2d Man.
% *Cross over and figure in, lead down 1 pair and cast up.  *SETT cross Partners.
% *Four hands round and Right and Left.

% @@@@@@@@@@@@@@@@@@@@@@@@@@@@@@@@@@

